X:1
T:Tango
T:Tango
T:Arreglado sobre un Habanera de Carlos Garcia Tolsa
T:Francisco Tárrega (1852 - 1909)
C:Francisco Tárrega
%%score ( 1 2 )
L:1/8
Q:1/4=70
M:2/4
K:Bb
V:1 treble-8 nm="Classical Guitar" snm="Guit."
V:2 treble-8 
V:1
"^Moderato"!p! d>c BA | G>D GA | B>B c^c | d4 |!f! [cea]>[cea]- [cea][cea] | %5
"^III" [Bdg]>[Bdg]- [Bdg][Bdg] | [Ac^f]>[Acf]- [Acf][Acf] |"^III" [Bdg]2 z2 |!p! d>c BA | G>D GA | %10
 B>B c^c | d4 |!f! [cea]>[cea]- [cea][cea] |"^III" [Bdg]>[Bdg]- [Bdg][Bdg] | %14
 [Ac^f]>[Acf]- [Acf][Acf] |"^III" [Bdg]2"_XII" d2 ||!p! G,>D GD | G,>D GD | %18
!mf!!-(!{/[gb]} !-)![bd']>[bd'] [bd']2- | [bd']>[bd'] [c'e'][c'e'] |{/f'} [c'e']>[bd'] [bd']2- | %21
 [bd']>[bd'] [c'e'][bd'] |{/e'} [bd']>[ac'] [ac']2- | [ac']>[ac'] [bd'][ac'] | %24
{/d'} [ac']>[gb] [gb]2- | [gb]>[dg] [gb][ac'] |!-(!{/[gb]} !-)![bd']>[bd'] [bd']2- | %27
 [bd']>[bd'] [c'e'][c'e'] |{/f'} [c'e']3/2[bd']/4[a^c']/4 [bd']2- | [bd']>[bd'] [c'e'][bd'] | %30
{/e'} [bd'][ac']/[^g=b]/ [ac'][ac'] | [ac'](d'/c'/) [db][ca] | [Bg]2 z2 | G,>D GD | %34
!-(!{/[gb]} !-)![bd']>[bd'] [bd']2- |"_XII" [bd']>[bd'] [c'e'][c'e'] |{/f'} [c'e']>[bd'] [bd']2- | %37
 [bd']>[bd'] [c'e'][bd'] |{/e'} [bd']>[ac'] [ac']2- |"_XII" [ac']>[ac'] [bd'][ac'] | %40
{/d'} [ac']>[gb] [gb]2- | [gb]>[dg] [gb][ac'] |!-(!{/[gb]} !-)![bd']>[bd'] [bd']2- | %43
 [bd']>[bd'] [c'e'][c'e'] |{/f'} [c'e']3/2[bd']/4[a^c']/4 [bd']2- | [bd']>[bd'] [c'e'][bd'] | %46
{/e'} [bd'][ac']/[^g=b]/ [ac'][ac'] | [ac'](d'/c'/) [db][ca] | %48
 [Bg]3/2!-(!{/[G=B]}!-)![Bd]/ (3[Bd][Bd][Bd] ||[K:G] (3[Bd][ce][Bd] [^A^c][Bd] | %50
!-(!{/[eg]} !-)![gb]>[gb] [gb][gb] |{/c'} (3[gb][fa][gb] [ac'][gb] | !-(![fa]>!-)![ac'] [ac'][gb] | %53
{/c'} (3[gb][fa][fa]{/b} [fa][eg] |{/a} (3[eg][df][df]{/g} [df][ce] | %55
{/ef} (3[ce][Bd][ce] [Bd][Ac] | !-(![GB]>!-)![Bd] (3[Bd][Bd][Bd] | (3[Bd][ce][Bd] [^A^c][Bd] | %58
!-(!{/[eg]} !-)![gb]>[gb] [gb][gb] |{/c'} (3[gb][fa][gb] [ac'][gb] | !-(![fa]>!-)![ac'] [ac'][gb] | %61
{/c'} (3[gb][fa][fa]{/b} [fa][eg] |{/a} (3[eg][df][df]{/g} [df][eg] | %63
{/ef} (3[ce][Bd][ce] [Bd][Acf] | [GBg]2 z2 ||[K:Bb]!p! d>c BA | G>D GA | B>B c^c | d4 | %69
!f! [cea]>[cea]- [cea][cea] |"^III" [Bdg]>[Bdg]- [Bdg][Bdg] | [Ac^f]>[Acf]- [Acf][Acf] | %72
"^III" [Bdg]2 z2 |!p! d>c BA | G>D GA | B>B c^c | d4 |!f! [cea]>[cea]- [cea][cea] | %78
"^III" [Bdg]>[Bdg]- [Bdg][Bdg] | [Ac^f]>[Acf]- [Acf][Acf] |"^III" [Bdg] z!8va(!"_VII" [d'^f']2 | %81
"_V" [g'=b']2!8va)! z2 |] %82
V:2
 D>C B,A, | G,>D, G,A, | B,>B, C^C | D4 | C>C- CC | [G,D]>[G,D]- [G,D][G,D] | D>D- DD | [G,D]2 z2 | %8
 D>C B,A, | G,>D, G,A, | B,>B, C^C | D4 | C>C- CC | [G,D]>[G,D]- [G,D][G,D] | D>D- DD | %15
 [G,D]2 z2 || x4 | x4 | G,3 D | G,3 D | G,3 D | G,3 D | D,3 D | D,3 D | G,3 D | G,4 | G,3 D | %27
 G,3 D | G,3 D | G,3 D | D,3 D | D,3 D | G,>D GD | x4 | G,3"_XII" d | G3 D | G,3 d | G3 D | D,3 d | %39
 D3 D | G,3 d | G3 D | G,3 d | G3 D | G,3 d | G3 D | D,3 d | D3 D | G,3 D ||[K:G] G,3 D | G,3 D | %51
 G,3 D | D,3 D | D,3 D | D,3 D | D,2 D2 | G,3 D | G,3 D | G,3 D | G,3 D | D,3 D | D,3 D | D,3 D | %63
 D,3 D | G,2 z2 ||[K:Bb] D>C B,A, | G,>D, G,A, | B,>B, C^C | D4 | C>C- CC | %70
 [G,D]>[G,D]- [G,D][G,D] | D>D- DD | [G,D]2 z2 | D>C B,A, | G,>D, G,A, | B,>B, C^C | D4 | C>C- CC | %78
 [G,D]>[G,D]- [G,D][G,D] | D>D- DD | [G,D] z!8va(! [da]2 | [gd']2!8va)! z2 |] %82

